lib/healthicons/icons/outline/typography/S.svg

<svg fill="none" height="48" viewBox="0 0 48 48" width="48" xmlns="http://www.w3.org/2000/svg"><path clip-rule="evenodd" d="m13 18c0-4.9706 4.0294-9 9-9h4c3.9239 0 7.2532 2.5093 8.4871 6.0003.5521 1.5621-.2666 3.2761-1.8288 3.8282-1.5621.5522-3.2761-.2666-3.8282-1.8288-.4129-1.1682-1.5275-1.9997-2.8301-1.9997h-4c-1.6569 0-3 1.3431-3 3s1.3431 3 3 3h4c4.9706 0 9 4.0294 9 9s-4.0294 9-9 9h-4c-3.9239 0-7.2532-2.5093-8.4871-6.0003-.5521-1.5621.2666-3.2761 1.8288-3.8282 1.5621-.5522 3.2761.2666 3.8282 1.8288.4129 1.1682 1.5275 1.9997 2.8301 1.9997h4c1.6569 0 3-1.3431 3-3s-1.3431-3-3-3h-4c-4.9706 0-9-4.0294-9-9zm9-7c-3.866 0-7 3.134-7 7s3.134 7 7 7h4c2.7614 0 5 2.2386 5 5s-2.2386 5-5 5h-4c-2.1744 0-4.0285-1.3889-4.7157-3.3332-.1841-.5208-.7554-.7937-1.2761-.6096-.5208.184-.7937.7553-.6096 1.276.9606 2.718 3.5525 4.6668 6.6014 4.6668h4c3.866 0 7-3.134 7-7s-3.134-7-7-7h-4c-2.7614 0-5-2.2386-5-5s2.2386-5 5-5h4c2.1744 0 4.0285 1.3889 4.7157 3.3332.1841.5208.7554.7937 1.2761.6096.5208-.184.7937-.7553.6096-1.276-.9606-2.718-3.5525-4.6668-6.6014-4.6668z" fill="#333" fill-rule="evenodd"/></svg>

<svg width="48" height="48" viewBox="0 0 48 48" fill="none" xmlns="http://www.w3.org/2000/svg">
<path fill-rule="evenodd" clip-rule="evenodd" d="M13 18C13 13.0294 17.0294 9 22 9H26C29.9239 9 33.2532 11.5093 34.4871 15.0003C35.0392 16.5624 34.2205 18.2764 32.6583 18.8285C31.0962 19.3807 29.3822 18.5619 28.8301 16.9997C28.4172 15.8315 27.3026 15 26 15H22C20.3431 15 19 16.3431 19 18C19 19.6569 20.3431 21 22 21H26C30.9706 21 35 25.0294 35 30C35 34.9706 30.9706 39 26 39H22C18.0761 39 14.7468 36.4907 13.5129 32.9997C12.9608 31.4376 13.7795 29.7236 15.3417 29.1715C16.9038 28.6193 18.6178 29.4381 19.1699 31.0003C19.5828 32.1685 20.6974 33 22 33H26C27.6569 33 29 31.6569 29 30C29 28.3431 27.6569 27 26 27H22C17.0294 27 13 22.9706 13 18ZM22 11C18.134 11 15 14.134 15 18C15 21.866 18.134 25 22 25H26C28.7614 25 31 27.2386 31 30C31 32.7614 28.7614 35 26 35H22C19.8256 35 17.9715 33.6111 17.2843 31.6668C17.1002 31.146 16.5289 30.8731 16.0082 31.0572C15.4874 31.2412 15.2145 31.8125 15.3986 32.3332C16.3592 35.0512 18.9511 37 22 37H26C29.866 37 33 33.866 33 30C33 26.134 29.866 23 26 23H22C19.2386 23 17 20.7614 17 18C17 15.2386 19.2386 13 22 13H26C28.1744 13 30.0285 14.3889 30.7157 16.3332C30.8998 16.854 31.4711 17.1269 31.9918 16.9428C32.5126 16.7588 32.7855 16.1875 32.6014 15.6668C31.6408 12.9488 29.0489 11 26 11H22Z" fill="#333333"/>
</svg>
